src/assets/images/icons/dribbble.svg

<svg width="60" height="49" viewBox="0 0 60 49" fill="none" xmlns="http://www.w3.org/2000/svg">
<path d="M29.7365 2.08333C28.3686 2.08333 27.014 2.35276 25.7502 2.87625C24.4864 3.39974 23.3381 4.16702 22.3708 5.1343C20.4173 7.0878 19.3198 9.73732 19.3198 12.5C19.3198 17.1042 22.3094 21.0104 26.4448 22.3958C26.9657 22.4792 27.1323 22.1562 27.1323 21.875V20.1146C24.2469 20.7396 23.6323 18.7187 23.6323 18.7187C23.1532 17.5104 22.4761 17.1875 22.4761 17.1875C21.5282 16.5417 22.549 16.5625 22.549 16.5625C23.5907 16.6354 24.1427 17.6354 24.1427 17.6354C25.049 19.2187 26.5802 18.75 27.174 18.5C27.2677 17.8229 27.5386 17.3646 27.8302 17.1042C25.5177 16.8437 23.0907 15.9479 23.0907 11.9792C23.0907 10.8229 23.4865 9.89583 24.1636 9.15624C24.0594 8.89583 23.6948 7.81249 24.2677 6.40624C24.2677 6.40624 25.1427 6.12499 27.1323 7.46874C27.9552 7.23958 28.8511 7.12499 29.7365 7.12499C30.6219 7.12499 31.5177 7.23958 32.3407 7.46874C34.3302 6.12499 35.2052 6.40624 35.2052 6.40624C35.7782 7.81249 35.4136 8.89583 35.3094 9.15624C35.9865 9.89583 36.3823 10.8229 36.3823 11.9792C36.3823 15.9583 33.9448 16.8333 31.6219 17.0937C31.9969 17.4167 32.3407 18.0521 32.3407 19.0208V21.875C32.3407 22.1562 32.5073 22.4896 33.0386 22.3958C37.174 21 40.1532 17.1042 40.1532 12.5C40.1532 11.1321 39.8837 9.77752 39.3602 8.51371C38.8368 7.2499 38.0695 6.10158 37.1022 5.1343C36.1349 4.16702 34.9866 3.39974 33.7228 2.87625C32.459 2.35276 31.1044 2.08333 29.7365 2.08333Z" fill="white"/>
<path d="M11.55 39.8481H6.57822C6.44988 39.8481 6.34586 39.9522 6.34586 40.0806V42.5113C6.34586 42.6395 6.44988 42.744 6.57822 42.744H8.51762V45.7639C8.51762 45.7639 8.08215 45.9123 6.87828 45.9123C5.45783 45.9123 3.47356 45.3933 3.47356 41.0299C3.47356 36.6657 5.53966 36.0915 7.47956 36.0915C9.15867 36.0915 9.88204 36.3871 10.3423 36.5296C10.4869 36.574 10.6207 36.4299 10.6207 36.3015L11.1753 33.9529C11.1753 33.893 11.1551 33.8207 11.0866 33.7715C10.8996 33.6383 9.75912 33 6.87828 33C3.55918 33 0.154785 34.4121 0.154785 41.2002C0.154785 47.9884 4.05249 49 7.33725 49C10.0569 49 11.7067 47.8377 11.7067 47.8377C11.7748 47.8002 11.782 47.7051 11.782 47.6615V40.0806C11.782 39.9522 11.6782 39.8481 11.55 39.8481Z" fill="white"/>
<path d="M37.1717 33.8134C37.1717 33.6839 37.0692 33.5796 36.941 33.5796H34.1417C34.0137 33.5796 33.9098 33.6839 33.9098 33.8134C33.9098 33.8139 33.9105 39.2231 33.9105 39.2231H29.5471V33.8134C29.5471 33.6839 29.444 33.5796 29.316 33.5796H26.5169C26.3895 33.5796 26.2856 33.6839 26.2856 33.8134V48.4617C26.2856 48.5908 26.3895 48.696 26.5169 48.696H29.316C29.444 48.696 29.5471 48.5908 29.5471 48.4617V42.196H33.9105C33.9105 42.196 33.9029 48.4612 33.9029 48.4617C33.9029 48.5908 34.0068 48.696 34.1348 48.696H36.9407C37.069 48.696 37.1714 48.5908 37.1717 48.4617V33.8134Z" fill="white"/>
<path d="M16.8321 35.7356C16.8321 34.7276 16.024 33.913 15.027 33.913C14.031 33.913 13.2222 34.7276 13.2222 35.7356C13.2222 36.7426 14.031 37.5593 15.027 37.5593C16.024 37.5593 16.8321 36.7426 16.8321 35.7356Z" fill="white"/>
<path d="M16.6324 45.3716V38.61C16.6324 38.4815 16.5287 38.3767 16.4008 38.3767H13.6102C13.4822 38.3767 13.3677 38.5086 13.3677 38.637V48.3245C13.3677 48.6092 13.5452 48.6939 13.7747 48.6939H16.2889C16.5647 48.6939 16.6324 48.5585 16.6324 48.32V45.3716Z" fill="white"/>
<path d="M47.8106 38.3987H45.0326C44.9053 38.3987 44.8016 38.5037 44.8016 38.6329V45.8153C44.8016 45.8153 44.0958 46.3316 43.0942 46.3316C42.0926 46.3316 41.8267 45.8773 41.8267 44.8964V38.6329C41.8267 38.5037 41.7232 38.3987 41.5957 38.3987H38.7765C38.6491 38.3987 38.5449 38.5037 38.5449 38.6329V45.3708C38.5449 48.2839 40.1685 48.9966 42.402 48.9966C44.2343 48.9966 45.7116 47.9843 45.7116 47.9843C45.7116 47.9843 45.7819 48.5177 45.8138 48.581C45.8457 48.6441 45.9285 48.7078 46.0181 48.7078L47.8117 48.6999C47.9391 48.6999 48.0433 48.5946 48.0433 48.4661L48.0424 38.6329C48.0424 38.5037 47.9386 38.3987 47.8106 38.3987Z" fill="white"/>
<path d="M54.3071 46.3228C53.3436 46.2935 52.6901 45.8562 52.6901 45.8562V41.2174C52.6901 41.2174 53.3349 40.8224 54.126 40.7517C55.1263 40.662 56.0902 40.9642 56.0902 43.3506C56.0902 45.8669 55.6553 46.3635 54.3071 46.3228ZM55.4028 38.0695C53.8251 38.0695 52.7519 38.7735 52.7519 38.7735V33.8134C52.7519 33.6839 52.6485 33.5796 52.521 33.5796H49.7138C49.5861 33.5796 49.4824 33.6839 49.4824 33.8134V48.4617C49.4824 48.5908 49.5861 48.696 49.7141 48.696H51.6617C51.7495 48.696 51.8159 48.6508 51.865 48.5716C51.9133 48.4929 51.9832 47.8962 51.9832 47.8962C51.9832 47.8962 53.1312 48.9841 55.3042 48.9841C57.8553 48.9841 59.3183 47.69 59.3183 43.1749C59.3183 38.6596 56.9817 38.0695 55.4028 38.0695Z" fill="white"/>
<path d="M24.6777 38.3753H22.5778C22.5778 38.3753 22.5747 35.6018 22.5747 35.6012C22.5747 35.4961 22.5206 35.4437 22.3991 35.4437H19.5377C19.4264 35.4437 19.3666 35.4927 19.3666 35.5995V38.4662C19.3666 38.4662 17.9327 38.8125 17.8357 38.8404C17.7391 38.8685 17.668 38.9574 17.668 39.0637V40.8651C17.668 40.9947 17.7715 41.0993 17.8995 41.0993H19.3666V45.4329C19.3666 48.6519 21.6245 48.9683 23.1482 48.9683C23.8444 48.9683 24.6772 48.7446 24.8146 48.6939C24.8979 48.6633 24.9461 48.5772 24.9461 48.4838L24.9485 46.502C24.9485 46.3729 24.8393 46.2682 24.7163 46.2682C24.5941 46.2682 24.281 46.318 23.9588 46.318C22.9273 46.318 22.5778 45.8385 22.5778 45.2177C22.5778 44.5973 22.5778 41.0993 22.5778 41.0993H24.6777C24.8057 41.0993 24.9093 40.9947 24.9093 40.8651V38.6087C24.9093 38.4794 24.8057 38.3753 24.6777 38.3753Z" fill="white"/>
</svg>

<svg xmlns="http://www.w3.org/2000/svg" width="60" height="49" fill="#fff" xmlns:v="https://vecta.io/nano"><path d="M29.737 2.083c-1.368 0-2.722.269-3.986.793a10.42 10.42 0 0 0-3.379 2.258A10.41 10.41 0 0 0 19.32 12.5c0 4.604 2.99 8.51 7.125 9.896.521.083.688-.24.688-.521v-1.76c-2.885.625-3.5-1.396-3.5-1.396-.479-1.208-1.156-1.531-1.156-1.531-.948-.646.073-.625.073-.625 1.042.073 1.594 1.073 1.594 1.073.906 1.583 2.438 1.115 3.031.865.094-.677.365-1.135.656-1.396-2.312-.261-4.74-1.156-4.74-5.125 0-1.156.396-2.083 1.073-2.823-.104-.26-.469-1.344.104-2.75 0 0 .875-.281 2.865 1.063.823-.229 1.719-.344 2.604-.344s1.781.115 2.604.344c1.989-1.344 2.864-1.062 2.864-1.062.573 1.406.208 2.49.104 2.75.677.74 1.073 1.667 1.073 2.823 0 3.979-2.437 4.854-4.76 5.114.375.323.719.958.719 1.927v2.854c0 .281.167.615.698.521 4.135-1.396 7.115-5.292 7.115-9.896 0-1.368-.27-2.722-.793-3.986s-1.291-2.412-2.258-3.379-2.116-1.735-3.379-2.258a10.42 10.42 0 0 0-3.986-.793zM11.55 39.848H6.578c-.128 0-.232.104-.232.232v2.431c0 .128.104.233.232.233h1.939v3.02s-.435.148-1.639.148c-1.42 0-3.405-.519-3.405-4.882s2.066-4.938 4.006-4.938c1.679 0 2.402.296 2.863.438.145.044.278-.1.278-.228l.555-2.349c0-.06-.02-.132-.089-.181C10.9 33.638 9.759 33 6.878 33 3.559 33 .155 34.412.155 41.2S4.052 49 7.337 49c2.72 0 4.369-1.162 4.369-1.162.068-.038.075-.133.075-.176v-7.581c0-.128-.104-.232-.232-.232zm25.622-6.035c0-.13-.102-.234-.231-.234h-2.799c-.128 0-.232.104-.232.234l.001 5.41h-4.363v-5.41c0-.13-.103-.234-.231-.234h-2.799c-.127 0-.231.104-.231.234v14.648c0 .129.104.234.231.234h2.799c.128 0 .231-.105.231-.234v-6.266h4.363l-.008 6.266c0 .129.104.234.232.234h2.806c.128 0 .231-.105.231-.234V33.813zm-20.34 1.923c0-1.008-.808-1.823-1.805-1.823s-1.805.815-1.805 1.823.809 1.824 1.805 1.824 1.805-.817 1.805-1.824zm-.2 9.636V38.61c0-.129-.104-.233-.232-.233h-2.79c-.128 0-.243.132-.243.26v9.688c0 .285.178.369.407.369h2.514c.276 0 .343-.135.343-.374v-2.948zm31.179-6.973h-2.778c-.127 0-.231.105-.231.234v7.182s-.706.516-1.707.516-1.267-.454-1.267-1.435v-6.264c0-.129-.104-.234-.231-.234h-2.819c-.127 0-.232.105-.232.234v6.738c0 2.913 1.624 3.626 3.857 3.626 1.832 0 3.31-1.012 3.31-1.012l.102.597c.032.063.115.127.204.127l1.794-.008c.127 0 .232-.105.232-.234l-.001-9.833c0-.129-.104-.234-.232-.234zm6.496 7.924c-.963-.029-1.617-.467-1.617-.467v-4.639s.645-.395 1.436-.466c1-.09 1.964.212 1.964 2.599 0 2.516-.435 3.013-1.783 2.972zm1.096-8.253c-1.578 0-2.651.704-2.651.704v-4.96c0-.13-.103-.234-.231-.234h-2.807c-.128 0-.231.104-.231.234v14.648c0 .129.104.234.232.234h1.948c.088 0 .154-.045.203-.124s.118-.675.118-.675 1.148 1.088 3.321 1.088c2.551 0 4.014-1.294 4.014-5.809s-2.337-5.105-3.916-5.105zm-30.725.305h-2.1l-.003-2.774c0-.105-.054-.157-.176-.157h-2.861c-.111 0-.171.049-.171.156v2.867l-1.531.374c-.097.028-.168.117-.168.223v1.801c0 .13.104.234.232.234h1.467v4.334c0 3.219 2.258 3.535 3.782 3.535a6.39 6.39 0 0 0 1.666-.274c.083-.031.132-.117.132-.21l.002-1.982c0-.129-.109-.234-.232-.234s-.435.05-.758.05c-1.032 0-1.381-.479-1.381-1.1V41.1h2.1c.128 0 .232-.105.232-.234V38.61c0-.129-.104-.233-.232-.233z"/></svg>
